common.blocks/input/__clear/input__clear.svg

<svg xmlns="http://www.w3.org/2000/svg" width="16" height="16"><path fill-rule="evenodd" clip-rule="evenodd" d="M8 1.209c-3.751 0-6.791 3.04-6.791 6.791 0 3.749 3.04 6.789 6.791 6.789 3.749 0 6.789-3.04 6.789-6.789 0-3.751-3.04-6.791-6.789-6.791zM11.99 10.564l-1.426 1.426-2.564-2.564-2.564 2.564-1.426-1.426 2.564-2.564-2.564-2.564 1.426-1.426 2.564 2.564 2.564-2.564 1.426 1.426-2.564 2.564 2.564 2.564z"/></svg>

<svg xmlns="http://www.w3.org/2000/svg" width="16" height="16"><path fill-rule="evenodd" clip-rule="evenodd" d="M8 1.21C4.25 1.21 1.21 4.25 1.21 8S4.25 14.79 8 14.79s6.79-3.04 6.79-6.79S11.75 1.21 8 1.21zm3.99 9.354l-1.426 1.426L8 9.426 5.436 11.99 4.01 10.564 6.574 8 4.01 5.436 5.436 4.01 8 6.574l2.564-2.564 1.426 1.426L9.426 8l2.564 2.564z"/></svg>
